public/img/icon/academ/person.svg

<svg width="46" height="30" viewBox="0 0 46 30" fill="none" xmlns="http://www.w3.org/2000/svg">
<path d="M8.71875 18.1562C10.5625 17.4062 12.3281 17.0312 14.0156 17.0312C15.7031 17.0312 17.4531 17.4062 19.2656 18.1562C21.1094 18.875 22.0312 19.8281 22.0312 21.0156V23.0312H6V21.0156C6 19.8281 6.90625 18.875 8.71875 18.1562ZM16.8281 13.8438C16.0469 14.625 15.1094 15.0156 14.0156 15.0156C12.9219 15.0156 11.9844 14.625 11.2031 13.8438C10.4219 13.0625 10.0312 12.125 10.0312 11.0312C10.0312 9.9375 10.4219 9 11.2031 8.21875C11.9844 7.40625 12.9219 7 14.0156 7C15.1094 7 16.0469 7.40625 16.8281 8.21875C17.6094 9 18 9.9375 18 11.0312C18 12.125 17.6094 13.0625 16.8281 13.8438Z" fill="#00212D"/>
<line x1="27" y1="10" x2="39" y2="10" stroke="#00212D" stroke-width="2" stroke-linecap="round"/>
<line x1="27" y1="15" x2="39" y2="15" stroke="#00212D" stroke-width="2" stroke-linecap="round"/>
<line x1="27" y1="20" x2="39" y2="20" stroke="#00212D" stroke-width="2" stroke-linecap="round"/>
<rect x="1" y="1" width="44" height="28" rx="4" stroke="#00212D" stroke-width="2"/>
</svg>

<svg width="46" height="30" fill="none" xmlns="http://www.w3.org/2000/svg"><path d="M8.719 18.156c1.844-.75 3.61-1.125 5.297-1.125 1.687 0 3.437.375 5.25 1.125 1.843.719 2.765 1.672 2.765 2.86v2.015H6v-2.015c0-1.188.906-2.141 2.719-2.86zm8.11-4.312c-.782.781-1.72 1.172-2.813 1.172-1.094 0-2.032-.391-2.813-1.172-.781-.781-1.172-1.719-1.172-2.813S10.421 9 11.203 8.22C11.984 7.406 12.922 7 14.016 7c1.093 0 2.03.406 2.812 1.219C17.61 9 18 9.938 18 11.03c0 1.094-.39 2.031-1.172 2.813z" fill="#00212D"/><path stroke="#00212D" stroke-width="2" stroke-linecap="round" d="M27 10h12M27 15h12M27 20h12"/><rect x="1" y="1" width="44" height="28" rx="4" stroke="#00212D" stroke-width="2"/></svg>
